X:1
T:The Well-Tempered Clavier Part I Fuga VIII
T:BWV 853
T:J. S. Bach
%%score { ( 1 2 ) | 3 }
L:1/8
M:4/4
K:F#
V:1 treble nm="Harp"
V:2 treble 
V:3 bass 
V:1
 z8 | z8 | z4 A2 d2- | dfed cd e2 | A2 d3 c ^B2 | A^B c2- c3 =B | A2 d2- d=d^de | f2 ef gefg | %8
 agfe f2 ed | ^^c d2 c d^c B2- | BA/G/ AB/c/ de/f/ e>d | ^^c2 d^c BAGF | EF G2- GF/E/ FG | %13
 A2 Bc/d/ G2 z A | Bcde fgab- | bc f4 e2- | e2 dc ^B^^cde | f2 ed cdef | c2 ^B2 A2 z2 | %19
 A2 e2- efed | cd e2 A2 z d- | dc ^B2 A2 z g- | gf e2- e/d/e/f/ d>e | e2 a2- abag | %24
 ^^fg a2 d2 g2- | gf e4 d2- | d2 g3 agf | ef g2 c2 f2- | f=edg c f2 ^e | f2 c2- cBcd | %30
 ed c2 g2 c2- | cd e2 f4- | fedc ^B2 ^^c2 | d4 c4 | Bcd=e ABcd | BAGF E2 FG | A2 ^B^^c d2- d^c | %37
 ^B^^c d4 c2 | d2 ^^cd egfe | dc BA/B/ A^B^^cd | eAag fgab | e2 ^^f2 g^fed | ^^c2 d2- d^cBA | %43
 BA G2- GF/E/ FG | A2 D2- D^^CDE | FE D2 A2 D2- | DE ^^F2 G2 g2 | d3 c d3 e | f3 e d2 a2 | %49
 d3 d ^^cdec | defg aAde | ^^c2 z2 A2 d2- | d=edc Bc d2 | GA/B/ AB c2 F2- | FEFG AG F2 | %55
 =e4- e^^c d2- | dfed ^^ce a2- | abag fg a2 | d2 g2- gf e2 | d2 c2 B2 A2 | G2 F2 E2 z ^B | %61
 ^^cd e2- ed ^c/B/c/^^f/ | g/a/ b2 a/g/ ade^^f | g2 z2 a2 d2- | dBcd =ed c2 | g2 d2- de ^^f2 | %66
 gagf ef g2- | gf ef/g/ a/g/ a2 g/f/ | e f2 e fc f2- | fgf=e de f2 | B2 =e2- ed c2 | %71
 B2 =e2- e^^c d2- | d2 g2- gg^^f^f- | ffe=e d2 c2 | B2- BB A2- Af | G4- GF/E/ FG | A2 z2 e4 | %77
 a6 b2 | a2 g2 f2 g2 | a4 d4 | g6 f2 | =e4 d4- | dB G2- GA B2- | BG E2- EF G2- | GE ^^C2- CCDE | %85
 F^^FGA B^B^^cd | d2 ^^c2 !fermata!d4 |] %87
V:2
 D2 A3 BAG | FG A2 D2 G2- | GF E2 D3 E | F2 G2 A3 G | FE FE/D/ E A2 ^^G | A2- AG ^^FD G2- | %6
 GFED E2 FG | AB^^cd ecde | fed^^c d^c B2 | A2 G2 F2 GF | %10
[I:staff +1] E3 D/E/ FG/A/ E3/2[I:staff -1]F/4G/4 | AGFE D2 ^^CD | ED^^C^B, C2 DE | F2 GF EC F2- | %14
 F2 E4[I:staff +1] D2 | CE[I:staff -1]FG ABcB | AGFE DEFA | dc ^B4 A2- | A2 ^^G2 A,2 E2- | %19
 EFED CD E2 |[I:staff +1] A,2[I:staff -1] z D- DC[I:staff +1] ^B,2 | A,2[I:staff -1] z G- GF E2 | %22
[I:staff +1] D2[I:staff -1] z[I:staff +1] C[I:staff -1] A^^G A2 | ^^G2 A2 d3 e | d3 c ^B3 c | %25
 d2 G2 c4 | ^B2 z2 G2 c2 | cdcB AB c2 | F2 B2- BA G2 | FEFG AGA^B | c B2 A BAGB | A4 A^Bcd | %32
 G2 A2- AGFE | DF B2- BAGF | G6 ^^F2 | G2[I:staff +1] D2- D^^C[I:staff -1]DE | %36
 FE[I:staff +1] D2[I:staff -1] A2[I:staff +1] D2- | D[I:staff -1]E F2 G4 | %38
 FGA^B ^^c[I:staff +1]A,^B,^^C | D3 E F2 ED | ^CD E2 ED/C/ D2 | DCB,A, B,D G2 | GFED E2 ^^F2 | %43
[I:staff -1] GFED ^^C2 DE | FEFG AG FE/D/ | ^^C A2 F/E/ ^^FGA^C | B,CD=E D2[I:staff +1] G,2- | %47
 G,^^F,G,A, B,A, G,2 | D2 A,2- A,B, C2- | ^C[I:staff -1]cBA GFGE | FGAG GF/E/ FG | A2 A,2 D3 =E | %52
 D[I:staff +1]CB,C[I:staff -1] D2[I:staff +1] G,F, | E,2[I:staff -1] C2[I:staff +1] F,3 E, | %54
 F,[I:staff -1]G,A,G,[I:staff +1] F,2 A,G, | G,2[I:staff -1] c2 F4 | BAGF[I:staff +1] ED^^CD | %57
 A,GFE D2[I:staff -1] dc | BAGB A d2 c- | c B2 A2 G2 F- | F E2 D ^^CE A2- | %61
 ABAG[I:staff +1] FG A2 | D2 G2- G^^F^E=E | D[I:staff -1]BA[I:staff +1]G ^^FD/E/ ^^FG/A/ | %64
[I:staff -1] B3 A G^^FGA |[I:staff +1] DE^^F[I:staff -1]G A/B/ c2 B/A/ | B2 z2[I:staff +1] G4 | %67
[I:staff -1] c6 d2 | c2 B2 A2 B2 | c4 F4 | B6 A2 | G4 F2 B2- | BdcB AB c2 | G2 c2- cB A2 | %74
 AD G2- GG F2- | F-FED ^^C2 D2 | D^^C/^B,/ ^^CE A3 B | A3 G F3 G | A4[I:staff +1] D2 G2- | %79
 GF E2 FA, D2 | D=EDC B,C D2 | G,2 C2- CB, A,2 | G,3 A, B,A,G,F, | E,3 F, G,F,E,D, | %84
 ^^C,3 D, E,2[I:staff -1] F,G, | A,A,B,C DDE^F | EBAG ^^F4 |] %87
V:3
 z8 | z8 | z8 | z8 | z8 | z8 | z8 | D,2 A,3 B,A,G, | F,G, A,2 D,2 G,2- | G,F, =F,2 D,2 D2 | %10
 ^^C2 ^C2 =C2 B,2 | A,A,, D,2- D,F,E,D, | ^^C,D, E,2 A,,2 D,2- | D,C, B,,4 A,,2 | %14
 G,,A,,B,,C, D,E,F,G, | A,G,A,B, C2 C,2 | F,,2 F,2- F,E,D,C, | ^B,,A,,^^G,,E,, A,,B,,C,D, | %18
 E,D,E,E,, A,,^^G,,A,,^B,, | C,^B,,C,D, E,D, C,D,/E,/ | F,/E,/F, ^^G,,2 A,,2 ^B,,2 | %21
 C,A,,E,D, ^^C, D,2 C, | D,^B,^^G,A, F,E, F,2 | E,2 z2 F,2 B,2- | B,CB,A, G,^^F,G,A, | %25
 ^B,2 C=B, A,G,^^F,D, | G,A,G,F, E,F,E,D, | C,B,A,G, F,G,F,=E, | D,C,B,,G,, A,,F,,C,C,, | %29
 F,,G,,A,,G,, F,,F,E,D, | C,2 F,4 E,2 | F,E,D,^^C, D,2 A,,^B,, | C,2 F,,2 G,,2 A,,2 | %33
 B,,A,,G,,F,, =E,,2 D,,2 | G,,A,,B,,C, D,2 z D, | G,A,B,G, A,G,F,=F, | D,2 G,3 ^^F,/^E,/ F,2 | %37
 G,F,E,D, E,F,G,A, | D,/D/C/B,/ A,2- A,F,G,A, | B,A, G,2 D2 A,2- | A,^B, ^^C2 D=B, F,G, | %41
 A,2 D,2 G,A, B,2 | A,4 z4 | z4 A,,2 D,,2- | D,,^^C,,D,,E,, F,,E,, D,,2 | %45
 A,,2 D,,2- D,,E,, ^^F,,2 | G,,2 A,,2 B,,C,B,,A,, | G,,A,, B,,=E,/C,/ G,2 B,,C, | %48
 D,^^C,D,E, F,G,E,^^F, | G,A,G,F, E,D,^^C,B, | A,G,F,E, D,C, B,,2 | A,,2 D,3 =E,D,C, | %52
 B,,C, D,2 G,,A,, B,,2 | C,2 F,,2- F,,E,,F,,G,, | A,,G,,F,,=E, D,4- | D,C,B,,A,, B,,2 B,A, | %56
 G,A,B,G, A,3 G, | F,G, A,2 D,E, ^^F,2 | G,F,E,D, ^^C,D,A,,A, | B,D,E,^^F, G,E,^^C,D, | %60
 ^B,,^^C,D,D,, A,,2 z2 | A,4 D4- | D2 =E2 D2 C2 | B,2 C2 D4 | G,4 C4- | C2 B,2 A,4 | %66
 G,2 C2- CDCB, | A,B, C2 F,2 B,2- | B,A, G,2 F,=E, D,/C,/D,/E,/ | A,,F,,G,,A,, B,,C, D,=E,/F,/ | %70
 G,A,/B,/ C,D,/=E,/ F,, F,2 ^^F, | G,^^F,G,A, B,A,G,^F, | E,F,E,D, ^^C,^^C/D/ =EA, | %73
 B,C/4^B,/4C/4^B,/4 CA, ^^F, G,2 F, | G,F,=E,D, C,^^C,D,A,, | B,,^B,,C,G,, A,,4- | %76
 A,,E, A,2- A,B,A,G, | F,G, A,2 D,E,/F,/ G,2- | G,F,E,^^C DE/F/ ED | ^^C D2 ^C- CD/=E/ DC | %80
 B,CB,A, G,F,=E,D, | C,C/B,/ A,G, ^^F, G,2 ^F, | E,4- E,F,E,D, | ^^C,4- C,D,C,^B,, | %84
 A,,4- A,,G,,F,,E,, | D,,C,B,,A,, G,,F,E,D, | A,2 A,,2 !fermata!D,,4 |] %87

